!!!COM: Music21
!!!OTL: reel_Ship-Has-Sailed--The
!!!OMV: reel_Ship-Has-Sailed--The
**kern
*clefG2
*k[f#]
*G:
*M4/4
=1
4g
8bL
8gJ
8ddL
8gJ
8bL
8gJ
=
4g
8bL
8gJ
8aL
8eJ
4e
=
4g
8bL
8gJ
8ddL
8gJ
8bL
8gJ
=
8aL
8f#J
8dL
8eJ
8f#L
8eJ
8eL
8dJ
=
4g
8bL
8gJ
8ddL
8gJ
8bL
8gJ
!!linebreak:original
=
4g
8bL
8gJ
8aL
8eJ
8eL
8dJ
=
8gL
8aJ
8bL
8ccJ
4dd
8ddL
8bJ
=
8aL
8f#J
8dL
8eJ
8f#L
8eJ
8eL
8dJ
=||
4e
8eL
8dJ
8eL
8eJ
8f#L
8eJ
=
4d
16f#LL
16eJ
8dJ
8aL
8dJ
8eL
8dJ
!!linebreak:original
=
4e
8eL
8dJ
4e
8eL
8f#J
=
8aL
8f#J
8dL
8f#J
8gL
8f#J
8gL
8aJ
=
8bL
8eJ
8eL
8dJ
4e
4e
=
4d
16f#LL
16eJ
8dJ
8aL
8dJ
8eL
8dJ
=
8gL
8aJ
8bL
8ccJ
4.dd
8b
!!linebreak:original
=
8aL
8f#J
8dL
8eJ
8f#L
8eJ
8eL
8dJ
=||
*-
